images-mobile/svg/icon3.svg

<svg width="110" height="56" viewBox="0 0 110 56" fill="none" xmlns="http://www.w3.org/2000/svg">
<path d="M39.8103 48.2234C39.8264 48.2238 39.8423 48.2269 39.857 48.2325C39.8717 48.2382 39.8849 48.2463 39.8959 48.2564L40.1167 48.464C39.9453 48.632 39.7334 48.7664 39.4956 48.8579C39.2171 48.9578 38.917 49.006 38.6151 48.9994C38.3314 49.0044 38.0495 48.9595 37.787 48.8673C37.5502 48.7827 37.3374 48.6556 37.1631 48.4946C36.9852 48.3277 36.8482 48.132 36.7601 47.9191C36.6637 47.6818 36.616 47.432 36.6193 47.1808C36.6154 46.928 36.6669 46.6768 36.7712 46.4401C36.8676 46.2259 37.0131 46.0302 37.199 45.8646C37.3875 45.7022 37.613 45.5745 37.8615 45.4895C38.1334 45.3995 38.4229 45.3546 38.7145 45.3574C38.9853 45.3518 39.2547 45.3927 39.5067 45.4777C39.7253 45.5588 39.926 45.6713 40.1001 45.8103L39.9152 46.0321C39.9024 46.0477 39.8865 46.0612 39.8683 46.0722C39.8465 46.0849 39.8201 46.0908 39.7937 46.0887C39.7651 46.087 39.7375 46.0788 39.7137 46.0651L39.6143 46.0061L39.4763 45.9306C39.4167 45.9026 39.3549 45.8782 39.2914 45.8575C39.2095 45.8325 39.1255 45.8128 39.0402 45.7985C38.9318 45.7815 38.8218 45.7736 38.7117 45.775C38.5017 45.7727 38.2934 45.8064 38.0989 45.874C37.9175 45.9367 37.7538 46.0315 37.6186 46.1524C37.481 46.2809 37.3749 46.4317 37.3067 46.5958C37.2289 46.7836 37.1906 46.9816 37.1935 47.1808C37.1902 47.3831 37.2285 47.5843 37.3067 47.7752C37.374 47.938 37.4781 48.0878 37.6131 48.2163C37.7395 48.3361 37.8962 48.4297 38.0713 48.4899C38.2515 48.5538 38.4449 48.5859 38.6399 48.5843C38.7526 48.5858 38.8652 48.5795 38.9767 48.5654C39.1587 48.5464 39.3333 48.4924 39.4873 48.4074C39.5646 48.3638 39.6375 48.3149 39.7054 48.2611C39.7338 48.238 39.7711 48.2246 39.8103 48.2234Z" fill="#8E8F99"/>
<path d="M46.1862 47.1807C46.1896 47.4309 46.1391 47.6796 46.0371 47.9142C45.9472 48.127 45.8055 48.3211 45.6213 48.4837C45.4372 48.6463 45.2148 48.7738 44.9689 48.8576C44.4285 49.0338 43.8311 49.0338 43.2906 48.8576C43.0462 48.7725 42.8253 48.6448 42.6419 48.4826C42.4579 48.317 42.3152 48.1212 42.2224 47.9071C42.0235 47.432 42.0235 46.9128 42.2224 46.4377C42.3165 46.2234 42.4591 46.0271 42.6419 45.8598C42.8269 45.7028 43.0477 45.5799 43.2906 45.499C43.8304 45.3197 44.4291 45.3197 44.9689 45.499C45.2141 45.5841 45.4359 45.7118 45.6203 45.874C45.802 46.0379 45.9437 46.2312 46.0371 46.4424C46.1394 46.6786 46.1899 46.9288 46.1862 47.1807ZM45.6065 47.1807C45.6109 46.9805 45.5754 46.7811 45.5016 46.591C45.4398 46.4282 45.3392 46.278 45.2063 46.1499C45.0769 46.0288 44.9175 45.9337 44.7398 45.8716C44.3471 45.7427 43.9124 45.7427 43.5197 45.8716C43.342 45.9337 43.1827 46.0288 43.0532 46.1499C42.9184 46.2773 42.8168 46.4276 42.7551 46.591C42.6147 46.975 42.6147 47.3864 42.7551 47.7703C42.8174 47.9335 42.919 48.0837 43.0532 48.2114C43.1828 48.3318 43.3422 48.4261 43.5197 48.4873C43.9131 48.613 44.3464 48.613 44.7398 48.4873C44.9173 48.4261 45.0767 48.3318 45.2063 48.2114C45.3386 48.083 45.4391 47.9329 45.5016 47.7703C45.5757 47.5803 45.6112 47.3809 45.6065 47.1807Z" fill="#8E8F99"/>
<path d="M50.5368 47.7987L50.5947 47.9308C50.6168 47.8836 50.6361 47.8412 50.6582 47.7987C50.6793 47.7544 50.7032 47.7111 50.73 47.669L52.1405 45.4781C52.1681 45.4404 52.193 45.4168 52.2206 45.4097C52.2581 45.4 52.2974 45.396 52.3365 45.3979H52.7533V48.9614H52.2592V46.3413C52.2592 46.3083 52.2592 46.2705 52.2592 46.2304C52.2566 46.1896 52.2566 46.1486 52.2592 46.1078L50.8404 48.3293C50.8224 48.3626 50.7936 48.3908 50.7573 48.4104C50.7211 48.4301 50.679 48.4404 50.6361 48.4402H50.5561C50.5131 48.4407 50.4709 48.4305 50.4346 48.4108C50.3983 48.3911 50.3695 48.3628 50.3518 48.3293L48.8916 46.0937C48.8916 46.1361 48.8916 46.1786 48.8916 46.221C48.8916 46.2635 48.8916 46.3012 48.8916 46.3342V48.9543H48.4141V45.3979H48.8309C48.87 45.396 48.9093 45.4 48.9468 45.4097C48.981 45.4242 49.0083 45.4484 49.0241 45.4781L50.465 47.6714C50.4933 47.7119 50.5173 47.7545 50.5368 47.7987Z" fill="#8E8F99"/>
<path d="M55.845 47.6217V48.9564H55.293V45.3978H56.5241C56.7565 45.394 56.9882 45.4202 57.2114 45.4756C57.3901 45.5189 57.5558 45.5945 57.6972 45.6973C57.8198 45.7937 57.9144 45.9132 57.9733 46.0463C58.0384 46.1915 58.0703 46.346 58.0671 46.5015C58.0695 46.6576 58.0348 46.8124 57.965 46.9566C57.8986 47.0932 57.7967 47.215 57.6669 47.3127C57.5252 47.4198 57.3587 47.5002 57.1783 47.5486C56.9634 47.6072 56.7386 47.6351 56.513 47.6311L55.845 47.6217ZM55.845 47.2396H56.513C56.6581 47.2412 56.8026 47.2229 56.9409 47.1854C57.055 47.1526 57.1601 47.1005 57.2501 47.0321C57.333 46.9668 57.3972 46.8862 57.4378 46.7963C57.4829 46.7012 57.5055 46.5994 57.504 46.4968C57.5104 46.3978 57.4915 46.2989 57.4486 46.2069C57.4057 46.1148 57.3398 46.0319 57.2556 45.9638C57.0447 45.8231 56.7798 45.755 56.513 45.7728H55.845V47.2396Z" fill="#8E8F99"/>
<path d="M63.2641 48.9613H62.828C62.7842 48.9627 62.7413 48.951 62.7065 48.9282C62.6752 48.906 62.6506 48.8777 62.6348 48.8457L62.2594 47.9848H60.374L59.9848 48.8457C59.9705 48.8772 59.9467 48.9048 59.9158 48.9259C59.8807 48.95 59.8366 48.9626 59.7916 48.9613H59.3555L61.0117 45.3975H61.5858L63.2641 48.9613ZM60.5314 47.6381H62.0882L61.4312 46.1876C61.381 46.0785 61.3395 45.9666 61.307 45.8527L61.2435 46.039C61.2242 46.0956 61.2021 46.1475 61.1828 46.1899L60.5314 47.6381Z" fill="#8E8F99"/>
<path d="M65.6498 45.414C65.6828 45.4295 65.7111 45.4513 65.7326 45.4777L68.1479 48.1641C68.1479 48.1216 68.1479 48.0792 68.1479 48.0391C68.1479 47.999 68.1479 47.9589 68.1479 47.9212V45.3975H68.642V48.9613H68.366C68.3268 48.9623 68.2879 48.955 68.2528 48.9401C68.2187 48.9231 68.1887 48.9007 68.1645 48.874L65.7519 46.19C65.7546 46.2309 65.7546 46.2718 65.7519 46.3126C65.7519 46.3527 65.7519 46.3881 65.7519 46.4211V48.9613H65.2578V45.3975H65.5504C65.5846 45.3967 65.6185 45.4024 65.6498 45.414Z" fill="#8E8F99"/>
<path d="M72.7104 47.5443V48.9594H72.1583V47.5443L70.6318 45.398H71.1259C71.1685 45.3959 71.2106 45.4067 71.2446 45.4287C71.2747 45.4516 71.2999 45.4787 71.3192 45.5089L72.2743 46.8933C72.3129 46.9523 72.346 47.0065 72.3736 47.0584C72.4012 47.1103 72.4233 47.1598 72.4426 47.2094L72.5144 47.0561C72.5412 47 72.5726 46.9456 72.6083 46.8933L73.5495 45.4994C73.5693 45.4716 73.5935 45.4462 73.6213 45.424C73.6541 45.3995 73.6966 45.3868 73.74 45.3886H74.2396L72.7104 47.5443Z" fill="#8E8F99"/>
<path d="M50.2637 39.4169C50.5038 39.4429 50.7467 39.4641 50.9924 39.4829C54.717 38.0594 57.8678 35.7294 60.051 32.7843C62.2343 29.8392 63.3532 26.4096 63.2677 22.9242L59.1631 19.4171C59.9976 23.128 59.6073 26.9641 58.0356 30.4962C56.4639 34.0283 53.7729 37.1171 50.2637 39.4169Z" fill="#8E8F99"/>
<path d="M48.7979 39.2542L48.9083 39.273C52.6582 36.9813 55.5172 33.7812 57.1155 30.0863C58.7138 26.3915 58.978 22.3719 57.8739 18.5475L52.0275 13.5524C54.3922 17.6582 55.344 22.2533 54.7723 26.8032C54.2006 31.353 52.1288 35.6708 48.7979 39.2542Z" fill="#8E8F99"/>
<path d="M68.6256 27.0426C67.6323 30.8722 65.22 34.3261 61.7468 36.8914C60.7324 37.6447 59.6383 38.3158 58.4785 38.896C61.3067 38.1858 63.9062 36.9301 66.0766 35.2258C68.247 33.5215 69.9303 31.4141 70.9967 29.0661L68.6256 27.0426Z" fill="#8E8F99"/>
<path d="M67.6952 26.4786L64.3193 23.5942C64.2547 26.8828 63.1605 30.0965 61.1504 32.9015C59.1402 35.7065 56.2875 38.0002 52.8887 39.5445H52.9052C53.6627 39.5442 54.4194 39.5056 55.1715 39.4289C58.3479 38.3212 61.1539 36.5589 63.3391 34.2992C65.5244 32.0395 67.0209 29.3527 67.6952 26.4786Z" fill="#8E8F99"/>
<path d="M49.2861 11.4457L45.2587 8C41.6584 9.18869 38.562 11.2784 36.3747 13.9955C34.1875 16.7127 33.0112 19.9308 33 23.2286V23.2286C33.0135 26.8725 34.449 30.4085 37.0793 33.277C39.7096 36.1454 43.3845 38.1824 47.5222 39.0656C51.216 35.2206 53.3786 30.4694 53.6958 25.5024C54.013 20.5353 52.4683 15.6113 49.2861 11.4457Z" fill="#8E8F99"/>
<path d="M76.9999 25.9477C76.9853 21.6244 74.9687 17.4817 71.3907 14.4246C67.8126 11.3675 62.9639 9.64453 57.9038 9.63209C55.5656 9.63002 53.2472 9.99867 51.0664 10.7193L75.7246 31.7872C76.5689 29.9249 77.0013 27.9449 76.9999 25.9477Z" fill="#8E8F99"/>
</svg>

<svg xmlns="http://www.w3.org/2000/svg" width="110" height="56" fill="none"><path fill="#8E8F99" d="M39.81 48.223c.016 0 .032.004.047.01a.123.123 0 0 1 .039.023l.22.208a1.818 1.818 0 0 1-.62.394c-.279.1-.579.148-.88.141a2.378 2.378 0 0 1-.829-.132 1.821 1.821 0 0 1-.624-.372 1.665 1.665 0 0 1-.403-.576 1.892 1.892 0 0 1-.14-.738 1.765 1.765 0 0 1 .151-.74c.097-.215.242-.41.428-.576.189-.163.414-.29.663-.376a2.64 2.64 0 0 1 .852-.132c.271-.005.54.036.793.12.218.082.419.194.593.333l-.185.222a.182.182 0 0 1-.047.04.129.129 0 0 1-.074.017.183.183 0 0 1-.08-.024l-.1-.059-.138-.075a1.604 1.604 0 0 0-.436-.133 1.96 1.96 0 0 0-.328-.023 1.81 1.81 0 0 0-.613.099 1.41 1.41 0 0 0-.48.278c-.138.129-.244.28-.312.444a1.47 1.47 0 0 0-.114.585 1.5 1.5 0 0 0 .114.594 1.26 1.26 0 0 0 .765.715c.18.064.373.096.568.094.113.002.225-.005.337-.019a1.348 1.348 0 0 0 .728-.304.175.175 0 0 1 .105-.038ZM46.186 47.18c.004.25-.047.5-.149.734-.09.213-.231.407-.416.57a1.92 1.92 0 0 1-.652.374 2.73 2.73 0 0 1-1.678 0 1.942 1.942 0 0 1-.65-.375 1.672 1.672 0 0 1-.419-.576 1.884 1.884 0 0 1 0-1.47c.094-.214.237-.41.42-.577.185-.157.406-.28.649-.361.54-.18 1.138-.18 1.678 0 .245.085.467.213.651.375a1.688 1.688 0 0 1 .566 1.307Zm-.58 0c.005-.2-.03-.399-.104-.589a1.213 1.213 0 0 0-.762-.72 1.973 1.973 0 0 0-1.22 0 1.319 1.319 0 0 0-.467.279 1.185 1.185 0 0 0-.298.441c-.14.384-.14.795 0 1.18.062.163.164.313.298.44.13.12.29.215.467.276a2.02 2.02 0 0 0 1.22 0c.177-.06.337-.155.466-.276.133-.128.233-.278.296-.44.074-.19.11-.39.104-.59ZM50.537 47.799l.058.132c.022-.047.041-.09.063-.132.021-.045.045-.088.072-.13l1.41-2.19c.028-.039.053-.062.08-.07a.389.389 0 0 1 .117-.011h.416v3.563h-.494v-2.73a.964.964 0 0 1 0-.123l-1.419 2.221a.203.203 0 0 1-.083.081.252.252 0 0 1-.12.03h-.08a.25.25 0 0 1-.122-.03.2.2 0 0 1-.083-.08l-1.46-2.236V48.954h-.478v-3.556h.417a.389.389 0 0 1 .116.012.155.155 0 0 1 .077.068l1.441 2.193c.028.04.052.084.072.128ZM55.845 47.622v1.334h-.552v-3.558h1.231c.233-.004.464.022.687.078.18.043.345.118.486.221a.921.921 0 0 1 .276.35c.065.145.097.299.094.455a.99.99 0 0 1-.4.811 1.42 1.42 0 0 1-.489.236c-.215.058-.44.086-.665.082l-.668-.01Zm0-.382h.668c.145.001.29-.017.428-.055a.94.94 0 0 0 .31-.153.674.674 0 0 0 .254-.535.593.593 0 0 0-.056-.29.688.688 0 0 0-.193-.243 1.202 1.202 0 0 0-.743-.191h-.668v1.467ZM63.264 48.961h-.436a.21.21 0 0 1-.122-.033.223.223 0 0 1-.071-.082l-.376-.861h-1.885l-.39.86a.196.196 0 0 1-.068.08.21.21 0 0 1-.124.036h-.437l1.657-3.563h.574l1.678 3.563Zm-2.733-1.323h1.557l-.657-1.45a2.332 2.332 0 0 1-.124-.335l-.064.186c-.019.057-.04.108-.06.15l-.652 1.45ZM65.65 45.414a.235.235 0 0 1 .083.064l2.415 2.686v-2.766h.494v3.563h-.276a.273.273 0 0 1-.113-.02.299.299 0 0 1-.088-.067l-2.413-2.684a.929.929 0 0 1 0 .123v2.648h-.494v-3.563h.292c.035-.001.069.004.1.016ZM72.71 47.544v1.415h-.552v-1.415l-1.526-2.146h.494a.201.201 0 0 1 .119.03c.03.024.055.05.074.08l.955 1.385a1.394 1.394 0 0 1 .168.316l.072-.153c.027-.056.059-.11.094-.163l.941-1.394a.376.376 0 0 1 .072-.075.186.186 0 0 1 .119-.035h.5l-1.53 2.155ZM50.264 39.417c.24.026.483.047.728.066 3.725-1.424 6.876-3.754 9.059-6.699 2.183-2.945 3.302-6.374 3.217-9.86l-4.105-3.507c.835 3.711.444 7.547-1.127 11.08-1.572 3.531-4.263 6.62-7.772 8.92Z"/><path fill="#8E8F99" d="m48.798 39.254.11.019c3.75-2.292 6.61-5.492 8.207-9.187 1.599-3.694 1.863-7.714.759-11.538l-5.846-4.996c2.364 4.106 3.316 8.701 2.744 13.251-.571 4.55-2.643 8.868-5.974 12.451ZM68.626 27.043c-.994 3.83-3.406 7.283-6.88 9.848a21.958 21.958 0 0 1-3.268 2.005c2.829-.71 5.428-1.966 7.599-3.67 2.17-1.704 3.853-3.812 4.92-6.16l-2.371-2.023Z"/><path fill="#8E8F99" d="m67.695 26.479-3.376-2.885c-.064 3.289-1.159 6.502-3.169 9.307-2.01 2.805-4.862 5.1-8.261 6.643h.016c.758 0 1.514-.038 2.267-.115 3.176-1.108 5.982-2.87 8.167-5.13 2.185-2.26 3.682-4.946 4.356-7.82ZM49.286 11.446 45.26 8c-3.6 1.189-6.697 3.278-8.884 5.995-2.188 2.718-3.364 5.936-3.375 9.234.014 3.643 1.449 7.18 4.08 10.048 2.63 2.868 6.305 4.905 10.442 5.789 3.694-3.845 5.857-8.597 6.174-13.564.317-4.967-1.228-9.89-4.41-14.056ZM77 25.948c-.015-4.324-2.031-8.466-5.61-11.523-3.577-3.058-8.426-4.78-13.486-4.793a21.774 21.774 0 0 0-6.838 1.087l24.659 21.068A14.088 14.088 0 0 0 77 25.947Z"/></svg>
